X: 205
T:Mo's Peerie Boston
% Nottingham Music Database
S:Tom Anderson, via Phil Rowe
M:6/8
K:A
E|"A"A2A "E"GAB|"A"A2c e2e|"D"f2d A2f|"A"e3 -e2c|"Bm"d2c "E7"Bcd|
"A"e2c "F#m"A2c|"Bm"B2e G2e|"E7"E3 EFG|"A"A2A "E"GAB|"A"A2c "A7"e2e|\
"D"f2d "B7"a2f|
"A"e3 -"F#m"e2c|"Bm"dff "E7"fed|"A"cee edc|"Bm"dcB "E7"e2G|"A"A3 -A2e||
"D"f2d a2f|"A"f2e e2e|"D"f2e "Dm"A2B|"A"c3 cBA|\
"D"dff "E7"fed|
"A"cee edc|"B7"B^df afd|"E7"e3 "A7"e^de|"D"f2d def|"A"e2c A2c|
"Bm"B2c d2B|"E7"A2G F2E|"A"A2A "E"GAB|"A"A2c "F#7"e2e|"Bm"f2d "E7"B2G|\
"A"A3 -A2||


